icons/javascript-map.svg

<svg version="1.1" viewBox="0 0 16 16" xmlns="http://www.w3.org/2000/svg">
 <g fill="#ffca28">
  <path d="m12 5v1h1v7h-7v-1h-1l-0.068533 2 9.0685 1e-3v-9.001z"/>
  <path d="m2 2v9h2 7v-7-2h-9zm3 3h1v4a1.003 1.003 0 0 1-1 1h-1a1.003 1.003 0 0 1-1-1v-1h1v1h1v-4zm3 0h2v1h-2v1h1a1.003 1.003 0 0 1 1 1v1a1.003 1.003 0 0 1-1 1h-2v-1h2v-1h-1a1.003 1.003 0 0 1-1-1v-1a1.003 1.003 0 0 1 1-1z"/>
 </g>
</svg>

<svg xmlns="http://www.w3.org/2000/svg" viewBox="0 0 16 16"><g fill="#ffca28"><path d="M12 5v1h1v7H6v-1H5l-.069 2 9.069.001V5z"/><path d="M2 2v9h9V2zm3 3h1v4a1.003 1.003 0 0 1-1 1H4a1.003 1.003 0 0 1-1-1V8h1v1h1zm3 0h2v1H8v1h1a1.003 1.003 0 0 1 1 1v1a1.003 1.003 0 0 1-1 1H7V9h2V8H8a1.003 1.003 0 0 1-1-1V6a1.003 1.003 0 0 1 1-1"/></g></svg>
